src/core/app-switcher/app-avatar/icons/reapit-websites-disabled.svg

<svg width="40" height="40" viewBox="0 0 40 40" fill="none" xmlns="http://www.w3.org/2000/svg">
<path d="M0 8C0 3.58172 3.58172 0 8 0H32C36.4183 0 40 3.58172 40 8V32C40 36.4183 36.4183 40 32 40H8C3.58172 40 0 36.4183 0 32V8Z" fill="#F2F4F6"/>
<path d="M17.7135 16.581L20.7708 19.6383C23.123 21.9905 25.6102 19.8952 26.5642 18.3731C27.1256 17.4774 27.6314 16.6207 28.0022 15.7878C28.8701 13.8375 29.0032 12.2876 28.3577 11.6422C27.7122 10.9967 26.163 11.1297 24.212 11.9977C22.1511 12.9153 19.8658 14.5306 17.7135 16.581Z" fill="#607890"/>
<path d="M26.0683 9.74059C21.7181 7.16326 16.0815 7.59226 12.159 11.0269L16.58 15.448C19.9604 12.2166 23.4367 10.1861 26.0683 9.74059Z" fill="#607890"/>
<path d="M11.027 12.1585C7.59239 16.0811 7.16339 21.7177 9.74069 26.068C10.1856 23.4364 12.216 19.96 15.4481 16.5796L11.027 12.1585Z" fill="#607890"/>
<path d="M20.0147 27.3895L20.0167 27.3876C17.8002 28.9685 15.6797 29.9642 13.9326 30.2595C18.2828 32.8368 23.9194 32.4078 27.8419 28.9732L26.1061 27.2373C23.5387 24.6699 21.74 26.2369 20.0147 27.3895Z" fill="#607890"/>
<path d="M16.2954 27.7642C18.8164 26.3799 22.5715 23.7026 19.1461 20.2778L16.5814 17.7131C14.5311 19.8661 12.9157 22.1514 11.9988 24.2124C11.1309 26.1627 10.9978 27.7126 11.6433 28.3581C12.2888 29.0036 13.8379 28.8705 15.789 28.0025C15.9565 27.9277 16.1253 27.8476 16.2954 27.7642Z" fill="#607890"/>
<path d="M30.2598 13.9315C29.956 15.7289 28.91 17.9203 27.2496 20.2056C27.1132 20.3817 26.9742 20.5658 26.8385 20.7571C25.8507 22.1487 25.0602 23.9276 27.1503 26.0184L28.9735 27.8416C32.4075 23.919 32.8371 18.2817 30.2598 13.9315Z" fill="#607890"/>
</svg>

<svg xmlns="http://www.w3.org/2000/svg" width="40" height="40" fill="none" viewBox="0 0 40 40">
  <path fill="#F2F4F6" d="M0 8a8 8 0 0 1 8-8h24a8 8 0 0 1 8 8v24a8 8 0 0 1-8 8H8a8 8 0 0 1-8-8V8Z"/>
  <path fill="#607890" d="m17.713 16.581 3.058 3.057c2.352 2.352 4.84.257 5.793-1.265.562-.896 1.067-1.752 1.438-2.585.868-1.95 1.001-3.5.356-4.146-.646-.645-2.195-.512-4.146.356-2.06.917-4.346 2.533-6.498 4.583Zm8.355-6.841c-4.35-2.577-9.987-2.148-13.909 1.287l4.421 4.421c3.38-3.231 6.857-5.262 9.488-5.707Zm-15.041 2.419c-3.435 3.922-3.864 9.559-1.286 13.909.445-2.632 2.475-6.108 5.707-9.488l-4.421-4.421Zm8.988 15.231.002-.002c-2.217 1.58-4.337 2.576-6.084 2.871 4.35 2.578 9.986 2.149 13.909-1.286l-1.736-1.736c-2.567-2.567-4.366-1-6.091.153Zm-3.72.374c2.521-1.384 6.276-4.061 2.851-7.486l-2.565-2.565c-2.05 2.153-3.665 4.438-4.582 6.5-.868 1.95-1.001 3.5-.356 4.145.646.646 2.195.512 4.146-.355.168-.075.336-.155.506-.239ZM30.26 13.931c-.304 1.798-1.35 3.99-3.01 6.275-.137.176-.276.36-.412.551-.987 1.392-1.778 3.17.312 5.261l1.824 1.824c3.433-3.923 3.863-9.56 1.286-13.91Z"/>
</svg>
